icons/currency-yen.svg

<svg xmlns="http://www.w3.org/2000/svg" width="24" height="24" viewBox="0 0 24 24">
  <path d="M12,1 C18.0751322,1 23,5.92486775 23,12 C23,18.0751322 18.0751322,23 12,23 C5.92486775,23 1,18.0751322 1,12 C1,5.92486775 5.92486775,1 12,1 Z M15.6,7.2 C15.1581722,6.86862915 14.5313708,6.9581722 14.2,7.4 L14.2,7.4 L12,10.332 L9.8,7.4 L9.71850414,7.30432455 C9.37329269,6.94688696 8.80784105,6.89411922 8.4,7.2 C7.9581722,7.53137085 7.86862915,8.1581722 8.2,8.6 L8.2,8.6 L10,10.999 L9,11 L8.88337887,11.0067277 C8.38604019,11.0644928 7.99994115,11.4871642 7.99994115,12 C7.99994115,12.5522847 8.44771525,13 9,13 L9,13 L11,12.999 L11,13.999 L9,14 L8.88337887,14.0067277 C8.38604019,14.0644928 7.99994115,14.4871642 7.99994115,15 C7.99994115,15.5522847 8.44771525,16 9,16 L9,16 L11,15.999 L11,17 L11.0067277,17.1166211 C11.0644928,17.6139598 11.4871642,18 12,18 C12.5522847,18 13,17.5522847 13,17 L13,17 L13,15.999 L15,16 L15.1166211,15.9932723 C15.6139598,15.9355072 16.0000589,15.5128358 16.0000589,15 C16.0000589,14.4477153 15.5522847,14 15,14 L15,14 L13,13.999 L13,12.999 L15,13 L15.1166211,12.9932723 C15.6139598,12.9355072 16.0000589,12.5128358 16.0000589,12 C16.0000589,11.4477153 15.5522847,11 15,11 L15,11 L13.999,10.999 L15.8,8.6 L15.8690296,8.49497485 C16.1155105,8.06348933 16.007841,7.50588078 15.6,7.2 Z"/>
</svg>

<svg xmlns="http://www.w3.org/2000/svg" viewBox="0 0 24 24">
  <path d="M12 1a11 11 0 1 1 0 22 11 11 0 0 1 0-22zm3.6 6.2a1 1 0 0 0-1.4.2L12 10.33 9.8 7.4l-.08-.1A1 1 0 0 0 8.2 8.6L10 11H8.88A1 1 0 0 0 9 13h2v1H8.88A1 1 0 0 0 9 16h2v1.12a1 1 0 0 0 2-.12v-1h2.12a1 1 0 0 0-.12-2h-2v-1h2.12a1 1 0 0 0-.12-2h-1l1.8-2.4.07-.1a1 1 0 0 0-.27-1.3z"/>
</svg>
